X:1
T:Scétate
T:Scètate
T:P. M. Costa
T:F. Russo
T:Pubblico dominio
T:Pubblico dominio
T:Pubblico dominio
T:Pubblico dominio
T:Pubblico dominio
C:P. M. Costa
Z:F. Russo
Z:Pubblico dominio
%%score 1 { ( 2 5 ) | ( 3 4 ) }
L:1/8
Q:1/4=68
M:2/4
K:G
V:1 treble nm="Voice"
V:2 treble nm="Piano"
V:5 treble 
V:3 bass 
V:4 bass 
V:1
"^Andantino (quasi allegretto)" z4 | z4 | z4 | z4 | z4 | z4 | z4 | z4 | z2 z!p! E || BB BB | %10
w: ||||||||Si~|duor\- meo si nun|
w: ||||||||'Ncie|lo se so'ar\- ruc\-|
 ^AG GA | PB4 | _B3 B | AG =FE | ^DE =F(3(F/G/F/) | PE4 | E4- | E2 z2 | z2 z E | BB BB | ^AG GA | %21
w: duor\- me, bel\- la|mi\-|a, sien\-|te pe nu mu\-|men\- to che\- _ _ sta|vo\-|ce!|_|Chi|te vo' be\- neas\-|saie sta mmiez' 'a|
w: chia\- te cien\- te|stel\-|le tut\-|te pe' staa sen\-|tì che\- sta can\- _ _|zo\-|ne:|_|ag\-|gio 'nti\- so par\-|là li ttre cchiù|
 PB4 | _B3 B | AG =FE | ^DE =F(3(F/G/F/) | PE4 | E4- | E2 z2 | z2 z E | =FG AB | cB AB | %31
w: vi\-|a pe'|te can\- tà 'na|can\- zun\- cel\- la _ _|do\-|ce!||Ma|stai dur\- men\- no,|nun te si' sce\-|
w: bbel\-|le, di\-|ce\- va\- no: Nce|te\- ne pas\- sï\- _ _|o\-|ne!||È|pas\- sï\- o\- ne|ca nun pas\- sa|
{Bc} (B>^A) B2- | B2 z E | =FG AB |{cd} cB Ac | PB4- | !breath!B!f!Bcd |{cd} c!<(!B B2 | %38
w: ta- * ta,|_ sti|ffe\- ne\- stel\- le|nun se von\- noa|prì,|_ è nu ri\-|ca\-- * mo|
w: ma\- _ ie,|_ pas\-|sa lu mun\- ne,es\-|sa nun pas\- sar\-|rà!|_ Tu cer\- toa|che\-- * sto|
 ^A!<)!B cd |{cd} cB B2- | BA!>(! BA!>)! |!mp! GF E2- | E^D B,D | E4 | z!<(! B cd!<)! | %45
w: sta man\- du\- li\-|na- * ta!|_ Scé\- ta\- te,|bel\- la mia,|_ nun cchiù dur\-|mì!|è nu ri\-|
w: nun ce pen\- zar\-|ra\- _ ie,|_ ma tu na\-|sci\- ste pe'|_ m'af\- fat\- tu\-|rà!|Tu cer\- toa|
!mf!{cd} cB B2 | ^AB cd |{cd} cB B2- | BA BA |!>(! GF E2-!>)! |!mp! E^D B,D |1 E4 :|2 E2 z2 || z4 | %54
w: ca\-- * mo|sta man\- du\- li\-|na- * ta!|_ Scé\- ta\- te,|bel\- la mia,|* nun cchiù dur\-|mì!|||
w: che\-- * sto|nun ce pen\- zar\-|ra\-- * ie,|_ ma tu na\-|sci\- ste pe'|_ m'af\- fat\- tu\-||rà!||
 z4 |!ff!!ff! e4 | d4 | c>B Ac | B4- | B2 z2 | z4 | z4 |!f!!f! e4- | e4- | e4- | e4- | e2 z2 | %67
w: |Ah!|_||||||Ah!|_||||
w: |||||||||||||
 z2 z2 | z4 | z2 z2 |] %70
w: |||
w: |||
V:2
!mf! [EGBe]4 | [DGBd]4 | [CFAc]>[B,B] [A,A][Cc] | [B,EGB]4 | .B,/.^C/.^D/.E/ .F/z/.D/ z/ | %5
 ED/C/ !>!B,2 | B/^A/G/A/ B/=A/G/F/ |"^leggerissimo sempre l'accompagnamento" E4- | E4 || E4 | C4 | %11
 E4 | G2 G2 | =F2 C2 | B,2 ^D2 | B,4- | B,3 B, | GE C^A, | E4 | E4 | C4 | E4 | G2 G2 | =F2 C2 | %24
 B,2 ^D2 | B,4- | B,3 B, | GEC^A, | E2"_cresc." z2 | C2 C[I:staff +1][F,A,C] | %30
[I:staff -1] C2 D[I:staff +1][F,A,D] |[I:staff -1] ^D2 D[I:staff +1][A,B,^D] | %32
[I:staff -1] F2 ^DB, | C2 C[I:staff +1][F,A,C] |[I:staff -1] C2 D[I:staff +1][F,A,D] | %35
[I:staff -1] ^D2 D[I:staff +1][A,B,^D] |[I:staff -1] F2 A2 |!<(! G2 E2 | F2!<)! AB | %39
 G2!>(! G2!>)! | E2!>(! E2!>)! | E2 C2 | B,2 F,2 | B,4 |!<(! F2 A2!<)! | G2 E2 | F2 AB | G2 G2 | %48
 E2 E2 |!>(! E2 C2!>)! | B,2 F,2 |1!p! B,4 :|2!f! [EGBe]4 || [DGBd]4 | [CFAc]>[B,B] [A,A][Cc] | %55
!ff!!ff! [EGB]3 [EGB] | [DGB]3 [DGB] | [C=FA]3 [CFA] | [B,^DF]3 [B,DF] | %59
 .B,/.^C/.^D/.E/ .F/z/.D/ z/ | ED/C/ !>!B,2 | B/^A/G/A/ B/=A/G/F/ |!f!!f! E4 | %63
 [EGB][EGB]/B,/ [EGB][EGB] | [EGB][EGB]/B,/ [EGB][EGB] | [EGB][EGB]/B,/ [EGB][EGB] | %66
!mp! [EGB]2 z2 | [GBe]2 z2 |!p! [G,B,E]4- | [G,B,E]2 z2 |] %70
V:3
 E,,E,,/B,,/ E,E, | E,,E,,/B,,/ E,E, | E,,E,,/B,,/ E,E, | E,,E,,/B,,/ E,E, | [B,,A,]2 .^D,.A, | %5
 [C,G,]2 [B,,D,][B,,D,] | [F,,E,]2 [B,,^D,][B,,D,] | E,, z B,, z | E,, z B,, z || E,, z B,, z | %10
 z [^G,A,]/[G,A,]/ z [G,A,] | E,, z B,, z | C,, z C, z | =F,, z A,, [=F,A,] | z [^D,A,] z [A,B,] | %15
 z [E,G,]/[E,G,]/ z [E,G,] | z [E,G,]/[E,G,]/ z [E,G,] | E,,B,,E,C, | z [E,G,]/[E,G,]/ z [E,G,] | %19
 z [E,G,]/[E,G,]/ z [E,G,] | z [^G,A,]/[G,A,]/ z [G,A,] | E,, z B,, z | C,, z C, z | %23
 =F,, z A,, [=F,A,] | z [^D,A,]/[D,A,]/ z [G,A,] | z [E,G,]/[E,G,]/ z [E,G,] | %26
 z [E,G,]/[E,G,]/ z [E,G,] | E,,B,,E,C, | z [G,B,]/[G,B,]/ z [G,B,] | z =F,/A,/ x2 | z =F,/A,/ x2 | %31
 z A,/B,/ x2 | z A,/B,/ x2 | z =F,/A,/ x2 | z =F,/A,/ x2 | z!f! A,/B,/ x2 | z!f! A,/B,/ z [B,^D] | %37
 z G,/B,/ z [G,B,] | z B,/^D/ x2 | G,, z E, z | z A,/B,/ z [A,C] | z [G,C]/[G,C]/ z [E,G,] | %42
 z ^D,/A,/ z [A,B,] | E,,/(B,,/E,/F,/ G,/)(A,/B,) | z A,/B,/ z [B,^D] | z G,/B,/ z [G,B,] | %46
 z B,/^D/ x2 | G,, z E, z | z A,/C/ z [A,C] | z G,/C/ z [A,C] | z ^D,/A,/ z [A,B,] |1 %51
 E,,/(B,,/E,/F,/ G,/)(A,/B,) :|2 E,,E,,/B,,/ E,E, || E,,E,,/B,,/ E,E, | E,,E,,/B,,/ E,E, | %55
 E,,E,,/B,,/ E,E, | G,,G,,/D,/ B,B, | =F,,F,,/C,/ A,A, | z4 | [B,,A,]2 .^D,.A, | %60
 [C,G,]2 [B,,D,][B,,D,] | [F,,E,]2 [B,,^D,][B,,D,] | E,,E,,/B,,/ E,E, | E,,E,,/B,,/ E,E, | %64
 D,,D,,/G,,/ D,D, | C,,C,,/G,,/ C,C, | [E,,B,,]2 z2 | [E,B,]2 z2 | [E,,B,,E,]4- | [E,,B,,E,]2 z2 |] %70
V:4
 x4 | x4 | x4 | x4 | x2 B,,2 | x4 | x4 | x4 | x4 || x4 | E,, z C, z | x4 | x4 | x3 z | %14
 B,, z B,,, z | E,, z B,, z | E,, z B,, z | x4 | E,, z B,, z | E,, z B,, z | E,, z C, z | x4 | x4 | %23
 x3 z | B,, z B,,, z | E,, z B,, z | E,, z B,, z | x4 | E,, z B,, z | A,, z A,, z | =F,, z C, z | %31
 !courtesy!^F,, z F,, z | B,, z B,,, z | A,, z A,, z | =F,, z C, z | !courtesy!^F,, z F,, z | %36
 B,, z B,,, z | E,, z B,, z | F,, z B,, z | x4 | A,, z A,, z | ^A,, z A,, z | B,, z B,,, z | x4 | %44
 B,, z B,,, z | E,, z B,, z | F,, z B,, z | x4 | A,, z A,, z | ^A,, z A,, z | B,, z B,,, z |1 %51
 x4 :|2 x4 || x4 | x4 | x4 | x4 | x4 | x4 | x2 B,,2 | x4 | x4 | x4 | x4 | x4 | x4 | x4 | x4 | x4 | %69
 x2 z2 |] %70
V:5
 x4 | x4 | x4 | x4 | x4 | x4 | x4 | z [G,B,]/[G,B,]/ z [G,B,] | z [G,B,]/[G,B,]/ z [G,B,] || %9
 z [G,B,]/[G,B,]/ z [G,B,] | x4 | z [G,B,]/[G,B,]/ z [G,B,] | z [_B,E]/[B,E]/ z [B,E] | %13
 z [A,C]/[A,C]/ z x | x4 | x4 | x4 | x4 | x4 | x4 | x4 | z [G,B,]/[G,B,]/ z [G,B,] | %22
 z [_B,E]/[B,E]/ z x | z [A,C]/[A,C]/ z x | x4 | x4 | x4 | x4 | x4 | x4 | x4 | x4 | x4 | x4 | x4 | %35
 x4 | x4 | x4 | x2 z [^DA] | z B,/E/ z [B,E] | x4 | x4 | x4 | G,4 | x4 | x4 | x2 z [^DA] | %47
 z B,/E/ z [B,E] | x4 | x4 | x4 |1 B,4 :|2 x4 || x4 | x4 | x4 | x4 | x4 | x4 | x4 | x4 | x4 | x4 | %63
 x4 | x4 | x4 | x4 | x4 | x4 | x4 |] %70

